X: 21985
T: Kitty Of Oulart
R: jig
M: 6/8
K: Dmajor
F/G/|A2D FED|A2D FED|B2G A2F|EFE EFG|
A2D FED|A2D FED|B2G A2F|DED D2:|
A|dcd efg|fed cBA|B2B AGF|E2E E2A|
dcd efg|fed cBA|BdB AFA|d2D D2:|

